X:55
T:Jig. RDO.55
M:6/8
L:1/8
Q:3/8=120
S:Robert D. Owen MS,Indiana,1826.
R:.Jig
O:Indiana,USA
A:New Harmony
Z:vmp.Chris Partington
K:A
f|e2fa2b|c’2c’ c’ba|c’2c’ c’ba|bab c’af|!
e>fg abc’|d’2d’ d’e’f’|e’c’a b2a|f3 f2:|!
|:d|(c/d/)ee ecA|(d/e/)ff fga|(c/d/)ee ecA|BGE F2d|!
(c/d/)ee ecA|(d/e/)ff fga|ecA B2A|F3A2:|

